X: 42731
T: White Ashes
R: reel
M: 4/4
K: Adorian
|:Ec~c2 ABGc-|cB2G- GeBG|Ec~c2 ABGA|B/c/dcB AGBG|
FADE EDDA-|AG2A F2ED|FEFG GAce|gBdg eBBA:|
|:eG~G2 B/c/deg|~e2dB B/c/deg|eG~G2 B/c/deg|gaed deBz|
FEFG GAce|geBe feAF|FEFG GAce|1 gffe edB/c/d:|2 fefg gedB||

